X: 31
T:Morrison's Jig
M:6/8
L:1/8
R:Double Jig
K:EDor
~E3 ~B3|EBE AFD|~E3 ~B3|dcB AFD|!
~E3 BEB|E2B AFD|G2G FGA|1dAG FED:|2dAG FGA|]!
Bee fee|aee fed|Bee fee|a2g fed|!
Bee fee|aee fed|gfe d2A|BAG FGA||!
Bee fee|aee fed|Bee fee|faf def|!
gag gfe|def g2d|edc d2A|BAG FED|]!
